X:20
T: Graf und Nonne (Die Nonne)
N: Q0155S
O: Osteuropa, UdSSR, Krim, Friedental
N: Pause am Ende der ersten Zeile weggelassen.
R: Ballade, Standesunterschied, vergebliche Werbung, Liebe, Klage
M: 6/8
L: 1/16
K: C
G,2 | C4E2F2E2C2 | D4B,2G,4
G,2 | D4G2G2F2D2 | E8z2
CD | E4A2G4E2F2D2
B,C | D4D2F4D2E2C2
G,2 | G4E2D4E2 | C6z4

@@@ Tune index: 1730
